!!!OTL-incipit: WO SOLL ICH MICH HINKEHREN
!!!ARE: Europa, Mitteleuropa, Deutschland
!!!SCT: Z0308
!!!TXL: @@DE
!!!YEM: Copyright 1995, estate of Helmut Schaffrath.
**kern	**text
*ICvox	*
*M2/4	*
*k[]	*
*a:	*
!LO:TX:a:t=Altes Lied.	!
{8e	Wo
=1	=1
8a	ſoll
8b	ich
8cc	mich
8dd	hin-
=2	=2
4ee	-keh-
8b}	-ren,
{8b	ich
=3	=3
8cc	dum-
8b/	-mes
8a	Brü-
8b/	-der-
=4	=4
4.e}	-lein,
{8e	Wie
=5	=5
8a	ſoll
8b	ich
8cc	mich
8dd	er-
=6	=6
4ee	-näh-
8b}	-ren,
{8b	mein
=7	=7
8cc	Gut
8b/	iſt
8a	viel
8b/	ʒu
=8	=8
4.e}	klein.
{8ee	Als
=9	=9
8ff	ich
8ee	ein
8dd	We-
8cc	-ſen
=10	=10
4.b}	han,
{8ee	ſo
=11	=11
8cc	muß
8a	ich
8b	bald
8e	da-
=12	=12
4.a}	-von,
{8ee	was
=13	=13
8ff	ich
8ee	ſoll
8dd	heut
8cc	ver-
=14	=14
4b	-ʒeh-
8b}	-ren,
{8ee	das
=15	=15
8cc	hab
8a	ich
8b/	ſchon
8e	ver-
=16	=16
4.a}	-than.
==	==
!!!AGN: Lyrisches Lied, Romanze, Verlassenheit
!!!ONB: ESAC (Essen Associative Code) Database: ZUCCAL
!!!AMT: simple duple
!!!AIN: vox
!!!EED: Helmut Schaffrath
!!!EEV: 1.0
!!!GTL: IV. Lyrische Lieder.
!!!URL-scan: https://www.digitale-sammlungen.de/de/view/bsb11160571?page=554
!!!ENC: Anna Maria Matuszewska
!!!EEV: 2025/01/31
*-	*-
